svgs/light/hand-holding-medical.svg

<svg xmlns="http://www.w3.org/2000/svg" viewBox="0 0 576 512"><!--! Font Awesome Pro 6.0.0-alpha3 by @fontawesome - https://fontawesome.com License - https://fontawesome.com/license (Commercial License) --><path d="M558.2 333.6c-9.5-8.619-22-13.37-35.12-13.37c-12.5 0-24.88 4.248-34.62 12.12l-61.45 49.21c-1.928 1.545-4.324 2.385-6.795 2.385h-41.62c4.625-9.619 6.5-20.74 4.75-32.23C379.4 323.7 353.7 304 325.6 304H181.2c-20.75 0-40.1 6.746-57.5 19.24l-38.5 28.73H16c-8.801 0-16 7.195-16 15.99S7.198 383.1 15.1 383.1l80.01 .0114l46.86-35.29c11.12-8.244 24.62-12.74 38.37-12.74h146.7c13.25 0 24 10.74 24 23.99s-10.75 23.98-24 23.98H239.1c-8.75 0-16 7.246-16 15.99c0 8.746 7.25 15.99 16 15.99h180.2c9.625 0 19-3.248 26.62-9.246l61.62-49.22c4.25-3.373 9.5-5.248 14.62-5.248c5 0 9.875 1.75 13.75 5.248c10.12 9.119 9.375 24.48-.875 32.61l-100.7 80.58c-7.584 6.064-17.01 9.369-26.72 9.369H16c-8.801 0-16 7.189-16 15.98S7.198 512 15.1 512h392.5c17 0 33.38-5.871 46.62-16.37l100.9-80.7c12.25-9.744 19.5-24.36 19.1-39.98C576.5 359.3 569.1 344.2 558.2 333.6zM192 192h32v32c0 17.67 14.33 32 32 32h64c17.67 0 32-14.33 32-32V192h32c17.67 0 32-14.33 32-32V96c0-17.67-14.33-32-32-32h-32V32c0-17.67-14.33-32-32-32H256C238.3 0 224 14.33 224 32v32H192C174.3 64 160 78.33 160 96v64C160 177.7 174.3 192 192 192zM192 96h64V32h64v64h64v64h-64v64H256V160H192V96z"/></svg>

<svg xmlns="http://www.w3.org/2000/svg" viewBox="0 0 576 512"><!-- Font Awesome Pro 6.0.0-alpha2 by @fontawesome - https://fontawesome.com License - https://fontawesome.com/license (Commercial License) --><path d="M558.225 333.607C548.725 324.988 536.225 320.24 523.102 320.24C510.602 320.24 498.227 324.488 488.479 332.357L427.025 381.566C425.098 383.111 422.701 383.951 420.23 383.951H378.607C383.232 374.332 385.107 363.215 383.357 351.721C379.357 323.738 353.734 304 325.609 304H181.242C160.492 304 140.244 310.746 123.744 323.238L85.246 351.971H16C7.199 351.971 0 359.166 0 367.961S7.199 383.951 16 383.951H95.996L142.869 348.723C153.992 340.479 167.492 335.98 181.242 335.98H327.984C341.234 335.98 351.984 346.725 351.984 359.967S341.234 383.951 327.984 383.951H239.99C231.24 383.951 223.99 391.197 223.99 399.941C223.99 408.687 231.24 415.934 239.99 415.934H420.23C429.855 415.934 439.23 412.686 446.855 406.688L508.477 357.469C512.727 354.096 517.977 352.221 523.102 352.221C528.102 352.221 532.977 353.971 536.85 357.469C546.975 366.588 546.225 381.953 535.975 390.074L435.23 470.65C427.646 476.715 418.225 480.02 408.512 480.02H16C7.199 480.02 0 487.215 0 496.01S7.199 512 16 512H408.48C425.48 512 441.855 506.129 455.104 495.635L555.975 414.934C568.225 405.189 575.475 390.572 575.973 374.957C576.473 359.342 569.973 344.227 558.225 333.607ZM192 192H224V224C224 241.674 238.328 256 256 256H320C337.674 256 352 241.674 352 224V192H384C401.674 192 416 177.674 416 160V96C416 78.326 401.674 64 384 64H352V32C352 14.326 337.674 0 320 0H256C238.328 0 224 14.326 224 32V64H192C174.328 64 160 78.326 160 96V160C160 177.674 174.328 192 192 192ZM192 96H256V32H320V96H384V160H320V224H256V160H192V96Z"/></svg>
